X:111
T: JAENSKEN VON BREMEN
N: E1164
O: Europa, Mitteleuropa, Deutschland, Westfalen
R: Trink -, Zech - Lied
M: 3/4
L: 1/4
K: G
 | ddc | _BAG | FGA | D2
d | _edc | _BAd | D2F | Gz
d | ddc | _BAG | FGA | D2
d | _edc | _BAd | D2F | Gz
d | D2F | Gzd | D2F | Gz
d | _edc | _BAd | D2F | Gz
d | D2F | Gzd | D2F | Gz2

